X: 40014
T: Three Scones Of Boxty, The
R: reel
M: 4/4
K: Dmajor
|GFEd cBAc|BAGB A2EF|GFEd cBAc|BAGE EDD2|
GFEd cBAc|BAGB A2EF|GFEd cBAc|BAGE EDD2|
cded cAA/A/A|BAGB A2AB|cded cAA/A/A|BAGE {G}EDD2|
cded cAA/A/A|BAGB A2AB|cdef g2ed|cAGE {G}EDD2||

